X: 7
T:Untitled Bouree
R:Bouree
M:3/8
L:1/16
Q:1/4=120
K:D
A2B2c2|d2e2f2|g2e2fg|a2e2c2|A2B2c2|d2e2f2|gfe2d2|e6:|
|:g3 ag2|f2e2d2|cde2c2|dcde f2|g3 ag2|f2e2d2|cde2c2|d6:|
